!!!!SEGMENT: pl-sa--72-a-ii-12--002_anonim--fuga-no-2.krn
!!!cenid: 18xx:653
!!!COM: Anonim
!!!COM-rismID: pe30004985
!!!CDT:
!!!CNT:
!!!OTL: Fuga No 2
!!!PDT:
!!!AGN: Secular; Fugue
!!!SMS-siglum: PL-SA
!!!SMS-shelfmark: 72/A II 12
!!!SMS-shelfwork: 002 W
!!!SMS-variant:
!!!SMS-altvar:
!!!NIFC-rismSourceID: 1001065748
!!!NIFC-islandoraID:
!!!URL-pdf-islandora:
!!!URL-scan: https://bc.bdsandomierz.pl/dlibra/publication/1349/edition/1317/content @EN{Scan in the Sandomierz Diocese Digital Library} @PL{Skany w portalu Cyfrowa Biblioteka Diecezjalna w Sandomierzu}
!!!ONB-nifc: Str. 2 (s. 1) – str. 3 (s. 2)
!!!AIN: 2 empty
!!!key:
**kern	**kern
*part2	*part1
*staff2	*staff1
*Iempty	*Iempty
*I"	*I"
*clefF4	*clefC1
*k[]	*k[]
*C:	*C:
*M4/4	*M4/4
*met(c)	*met(c)
=1	=1
!	!LO:TX:a:t=No 2do.
1ryy	8g\L
.	8g\
.	8a\
.	8b\J
.	8cc\L
.	16b\L
.	16a\JJ
.	4g\
=2	=2
1ryy	8a\L
.	8a\
.	8e\
.	8f#X\J
.	4g\
.	4g\
=3	=3
8c>\L	8cc/L
8c>\	16dd/L
.	16cc/JJ
8d>\	8b/L
8e>\J	16a/L
.	16g/JJ
8f>\L	8a/L
16e>\L	8b/J
16d>\JJ	.
4c>\	8cc/L
.	8g/J
=4	=4
8d>\L	8f/L
8d>\J	16a/L
.	16g/JJ
8A>\L	8f/L
8B>\J	16e/L
.	16d/JJ
4c>\	8e/L
.	16e/L
.	16g/JJ
4c>\	8f#X/L
.	16f#/L
.	16a/JJ
=5	=5
*	*^
8G\L	4b/	8g\L
8G\	.	16a\L
.	.	16g\JJ
8A\	8cc/L	8fn\L
8B\J	8dd/J	16e\L
.	.	16d\JJ
8c\L	8g/L	8e\L
16B\L	8a/J	8f#X\J
16A\JJ	.	.
4G\	4b/	8g\L
.	.	8fn\J
=6	=6	=6
8A\L	2cc/	8.e\L
8A\	.	.
.	.	16f#X\K
8E\	.	8g\
8F#X\J	.	8a\J
4G\	16b/LL	8d\L
.	16cc/	.
.	16a/	8c\J
.	16b/JJ	.
4G\	8g/L	8B\L
.	8f#/J	16c\L
.	.	16d\JJ
=7	=7	=7
*^	*	*
2G/	8C\L	4e/	8d\L
.	8C\	.	8c\J
.	8D\	8g/L	4c\
.	8E\J	8a/J	.
2ryy	8F\L	8c/L	4ryy
.	16E\L	8d/J	.
.	16D\JJ	.	.
.	4C/	4e/	8c\L
.	.	.	8B\J
=8	=8	=8	=8
2ryy	8D\L	2f/	8.A\L
.	8D\	.	.
.	.	.	16B\Jk
.	8AA\	.	8c\L
.	8BB\J	.	8d\J
*	*2\right	*	*
4G/	2C\	8cc\L	4e\
.	.	8cc\	.
4c/	.	8dd\	4ryy
.	.	8ee\J	.
*v	*v	*	*
=9	=9	=9
8c>\L	8ff/L	8f/L
8d>\J	16ee/L	8g/J
.	16dd/JJ	.
4e>\	4cc/	4g/
4.f>\	8dd/L	2ryy
.	8dd/	.
.	8a/	.
16g>\LL	8b/J	.
16f>\JJ	.	.
=10	=10	=10
*^	*	*
2c\	1C\	8cc/L	8e\L
.	.	16dd/L	8f#X\J
.	.	16cc/JJ	.
.	.	8b/L	8g\L
.	.	16a/L	8e\J
.	.	16g/JJ	.
2c\	.	8a/L	8e\L
.	.	8b/J	8f#X\J
.	.	8cc/L	8e\L
.	.	16dd/L	8g\J
.	.	16ee/JJ	.
*v	*v	*	*
=11	=11	=11
2.c\ 2.C\	8ff/L	8a\L
.	16gg/L	8b\J
.	16ff/JJ	.
.	8ee/L	8cc\L
.	16dd/L	8e\J
.	16cc/JJ	.
.	16dd/LL	4f\
.	16ff/	.
.	16dd/	.
.	16b/JJ	.
4c\ 4C\	4cc/	4e\
*	*v	*v
!!LO:LB:g=original
=12	=12
2c\ 2C\	8cc/L
.	16dd/L
.	16cc/JJ
.	8b/L
.	16a/L
.	16g/JJ
2c\ 2C\	8a/L
.	8b/J
.	8cc/L
.	16dd/L
.	16ee/JJ
=13	=13
4C\	8ff/L
.	16gg/L
.	16ff/JJ
.	8qff/
4F\	8ee/L
.	16dd/L
.	16cc/JJ
2G\	16b/LL
.	16ff/
.	16dd/
.	16b/JJ
.	4cc/
=14	=14
*^	*^
8c>\L	2G\	2g/	8e/L
16d>\L	.	.	16f/L
16c>\JJ	.	.	16e/JJ
8B>\L	.	.	8d/L
16A>\L	.	.	16c/L
16G>\JJ	.	.	16B/JJ
8c>\L	2G\	2g/	8e/L
16B>\L	.	.	8f#X/J
16A>\JJ	.	.	.
8B>/L	.	.	4g/
8c>/J	.	.	.
*v	*v	*	*
=15	=15	=15
2G\	16cc/LL	8e\L
.	16dd/	.
.	16cc/	8f#X\J
.	16a/JJ	.
.	16b/LL	8g\L
.	16dd/	.
.	16b/	8e\J
.	16g/JJ	.
2G\	16a/LL	8fn\L
.	16cc/	.
.	16a/	16e\L
.	16f#X/JJ	16d\JJ
.	4g/	8c\L
.	.	8e\J
=16	=16	=16
8GG/L	4d/	4B\
8GG/	.	.
*	*v	*v
8AA/	8g/L
8BB/J	16g/L
.	16f/JJ
8C/L	8e/L
16BB/L	8f#X/J
16AA/JJ	.
4GG/	4g/
=17	=17
*	*^
8AA/L	8.e/L	2ryy
8AA/	.	.
.	16f#X/Jk	.
8EE/	8g\L	.
8FF#X/J	8a\J	.
4GG/	4d/	8c\L
.	.	16B\L
.	.	16A\JJ
4GG/	4g/	8B\L
.	.	16c\L
.	.	16B\JJ
!!LO:LB:g=original
=18	=18	=18
*^	*	*
4A/	2D\	8g\L	2ryy
.	.	16a\L	.
.	.	16g\JJ	.
4B/	.	8fn/L	.
.	.	16e/L	.
.	.	16d/JJ	.
2ryy	8C\	8cc/L	8c\L
.	8r	8cc/	8c\
.	4r	8dd/	8d\
.	.	8ee/J	8e\J
*v	*v	*	*
=19	=19	=19
!LO:TX:b:i:t=pedal.	!	!
1C/	8ff/L	8f\L
.	16ee/L	16e\L
.	16dd/JJ	16f\JJ
.	4cc/	4c\
.	8dd/L	8d\L
.	8dd/	8d\
.	8a/	8A\
.	8b/J	8B\J
=20	=20	=20
2C\	4cc/	4c\
.	4cc/	4c\
4G\	16ff/LL	8d\L
.	16aa/	.
.	16ff/	8B\J
.	16dd/JJ	.
4G\	16ee/LL	8c\L
.	16gg/	.
.	16ee/	8e\J
.	16cc/JJ	.
=21	=21	=21
*^	*	*
2ryy	4G\	16dd/LL	8f\L
.	.	16ff/	.
.	.	16dd/	8g\J
.	.	16b/JJ	.
.	4c\	4cc/	4e\
8d/L	2G\	16f/LL	2ryy
.	.	16a/	.
8B/J	.	16f/	.
.	.	16d/JJ	.
4c/	.	16e/LL	.
.	.	16g/	.
.	.	16e/	.
.	.	16c/JJ	.
*v	*v	*	*
*	*v	*v
=22	=22
8F\L	16d/LL
.	16f/
8G\	16d/
.	16B/JJ
8E\	4c/
8D\J	.
8C'\L	2ryy
8C'\	.
8D'\	.
8E'\J	.
=23	=23
8F`\L	1ryy
16E`\L	.
16D`\JJ	.
4C\	.
8D\L	.
8D\	.
8AA\	.
!LO:SIC:o:s:=:v:znak powtórzenia taktu	!
8BB\J	.
!LO:TX:a:t= V&colon;S&colon;	!
!!LO:PB:g=original
=24	=24
4C\	8c/L
.	16d/L
.	16c/JJ
!	!LO:TX:a:t=P:problem=mixed beam
4C\	8B\L
.	16A</L
.	16G</JJ
8F\L	8A</L
16G\L	8B</J
16F\JJ	.
8E\L	4c\
16D\L	.
16C\JJ	.
=25	=25
*	*^
8E\L	8c/L	2ryy
8F#X\J	16B/L	.
.	16A/JJ	.
4G\	8B/L	.
.	8G/J	.
8G\L	8g/L	4B\
16A\L	8g/	.
16G\JJ	.	.
8F#X\L	8a/	4d\
16E\L	8b/J	.
16D\JJ	.	.
=26	=26	=26
8E\L	8cc/L	4c\
8F#X\J	16b/L	.
.	16a/JJ	.
4G\	4ryy	8B\L
.	.	16d\L
.	.	16B\JJ
!LO:TX:a:t=P:problem=mixed beam	!	!
8C/L	8a/L	4.c\
8AA/	8a/	.
8A\	8e/	.
8D\J	8f#X/J	16d\LL
.	.	16c\JJ
=27	=27	=27
4GG/	8g/L	4B\
.	16a/L	.
.	16g/JJ	.
8AA\L	4fn/	8c\L
8BB\J	.	8d\J
2C/	8cc/L	8c\L
.	16dd/L	8c\
.	16cc/JJ	.
.	8b/L	8d\
.	16a/L	8e\J
.	16g/JJ	.
=28	=28	=28
*^	*	*
2C/	2ryy	8a/L	8f\L
.	.	8b/J	16g\L
.	.	.	16f\JJ
.	.	4g/	8e\L
.	.	.	8c\J
.	.	8qgg/	.
8A/L	2C\	8ff\L	2ryy
8B/J	.	16dd\L	.
.	.	16ff\JJ	.
.	.	8qff/	.
8c/L	.	8ee\L	.
8G/J	.	16cc\L	.
.	.	16ee\JJ	.
*	*	*v	*v
=29	=29	=29
.	.	8qee/
8F/L	2C\	8dd/L
8G/J	.	16b/L
.	.	16dd/JJ
4E/	.	4cc/
8A/L	2C\	16f/LL
.	.	16a/
8B/	.	16f/
.	.	16d/JJ
8c/	.	16e/LL
.	.	16g/
8E/J	.	16e/
.	.	16c/JJ
=30	=30	=30
4F/	2C\	16d/LL
.	.	16f/
.	.	16d/
.	.	16B/JJ
4E/	.	4c/
8C`\L	2ryy	8c'/L
8C`\	.	8c'/
8D`\	.	8d'/
8E`\J	.	8e'/J
*v	*v	*
!!LO:LB:g=original
=31	=31
8F\L	8f/L
16E\L	16e/L
16D\JJ	16d/JJ
4C\	4c/
8D\L	8d/L
8D\	8d/
8AA\	8A/
8BB\J	8B/J
=32	=32
4C/ 4CC/	4c/
4C/ 4CC/	4c/
!LO:TX:a:i:t=Fine.	!
2r	2r
==	==
*-	*-
!!!system-decoration: [s1,s2]
!!!RDF**kern: > = above
!!!RDF**kern: < = below
!!!EED: Leszek Kubiak
!!!EEV: 2020-11-30
!!!ENC: Andrzej Borzym
!!!END: 2020-06-20
